X: 1
T: String Quartet in G Major opus 77 no 1 mvt 2
C: Franz Joseph Haydn
%%abc-version 2.0
%%abcx-abcm2ps-target-version 5.9.1 (29 Sep 2008)
%%abc-creator hum2abc beta
%%abcx-conversion-date 2021/02/14 14:38:15
%%abc-copyright Copyright (c) 1994, 2000 Center for Computer Assisted Research in the Humanities
%%abc-edited-by Frances Bennion
%%abcx-initial-encoding-date 1997/04/15
%%gracespace 0 6 6
%%humdrum-veritas 3651827213
%%humdrum-veritas-data 4008172707
%%linebreak <none>
%%barnumbers 0
L: 1/8
M: 4/4
N: Derived from op77n1-02.krn
Q: "Adagio"
%%staves [1 2 3 4]
V: 1
V: 2
V: 3 clef=alto
V: 4 clef=bass
K: Eb
[V:1]e4 G2 c2 [I:setbarnb2] |
[V:2]e4 G2 c2 |
[V:3]e4 G2 c2 |
[V:4]E4 G,2 C2 |
[V:1]A2 >>F2 D(3:2:2z2 z//D/|
[V:2]A2 >>F2 Dz2 z/B,/ |
[V:3]A2 >>F2 Dz3 |
[V:4]A,2 >>F,2 D,z2 z/A,/ |
[V:1]Ez Fz Gz A2 |
[V:2]B,z B,z B,z C2 |
[V:3]z6 F2 |
[V:4]G,z D,z E,z A,,2 |
[V:1]G4 Fz3 |
[V:2]B,4 z4 |
[V:3]E4 Dz3 |
[V:4]B,,6 A,,F,, |
[V:1]e4 G2 c2 |
[V:2]e4 G2 c2 |
[V:3]E4 G,2 C2 |
[V:4]E,,4 G,,2 C,2 |
[V:1]A2 >>F2 D(3:2:2z2 z//D/|
[V:2]A2 >>F2 Dz2 z/B,/ |
[V:3]A,2 >>F,2 D,z2 z/F,/ |
[V:4]A,,2 >>F,,2 D,,z2 z/A,,/ |
[V:1]Ez Az Gz Dz |
[V:2]B,z Fz Ez A,z |
[V:3]G,z Cz B,z F,z |
[V:4]G,,z A,,z B,,z B,,z |
[V:1]E2 zE GB eg |
[V:2]G,2 z6 |
[V:3]G,2 z6 |
[V:4]E,2 E,,2 z4 |
[V:1]b4- b3/c'//b// a3/g/ |
[V:2]g4- g3/a//g// f3/=e/ |
[V:3]e4 G2 c2 |
[V:4]z8 |
[V:1]a2 a>b c'(3:2:2z2 z//c'/|
[V:2]f2 f>g az2 z/a/ |
[V:3]A2 >>F2 Dz2 z/D/ |
[V:4]z8 |
[V:1]bz/b/ az/a/ gz/g/ f/g/a/f/ |
[V:2]gz/g/ fz/f/ ez/e/ cz/c/ |
[V:3]Ez/E/ Fz/F/ Gz/G/ Az/A,/ |
[V:4]z8 |
[V:1]e4- e/d/f/e/ g/f/a/g/ |
[V:2]G4 F2 z2 |
[V:3]B,6 z2 |
[V:4]z8 |
[V:1]a2 >>f2 d/B/=A/B/ (3:2:6c//d//e//f//g//a//=a//|
[V:2]D6 F2 |
[V:3]F6 D3/F/ |
[V:4]B,,6 A,,2 |
[V:1]b2 >g2 e/=A/B/_G/ =G/D/E/=B,/ |
[V:2]E4 G2 zE |
[V:3]G2 E,2 z3 G, |
[V:4]G,,2 G,2 z3 G,, |
[V:1]C/D/E/=E/ F/G/A/=B/ c/d/e/=e/ f/g/a/d/ |
[V:2]E2 z4 F2 |
[V:3]A,2 z4 D3/A/ |
[V:4]A,,2 z4 B,,2 |
[V:1]e2 z2 z4 |
[V:2]GG GG GG GG |
[V:3]GE EE EE EE |
[V:4]E,4 G,,2 C,2 |
[V:1]z2 (3:2:2c2-c//=A/e/ c/A/F/E/ =A,/|
[V:2]FF FF FF FF |
[V:3]EE EE EE EE |
[V:4]=A,,2 >>E,,2 C,,z3 |
[V:1]B,2 z2 B2 B3/c/ |
[V:2]FF FF FF FF |
[V:3]_DD DD DD DC |
[V:4]B,,2 >>F,,2 _D,,z3 |
[V:1]_d4- d/=A/B/c/ d/c/d/B/ |
[V:2]F=E EE EE EE |
[V:3]B,B, B,B, B,B, B,B, |
[V:4]_G,,2 >>B,,2 _D,2 G,,2 |
[V:1]_dc cc cf ff |
[V:2]=EF FF F=A AA |
[V:3]B,=A, A,A, A,C CC |
[V:4]F,,4 z4 |
[V:1]_g7/ e//c// =Az3 |
[V:2]=AA AA AA AA |
[V:3][CE][EC] [CE][EC] [EC][CE] [CE][EC] |
[V:4]F,,F, F,F, F,F, F,F, |
[V:1](3:2:2f4- f/8d//B/F/D (3:2:2z2 z//b/|
[V:2]BB BB [BD][BD] [BD][DB] |
[V:3][B,D][DB,] [DB,][B,D] [DB,][B,D] [B,D][B,D] |
[V:4]F,,F, F,F, F,F, F,F, |
[V:1]b/=a/a/_a/ a/g/g/_g/ g/f/f/=e/ e/f/=g/_e/ |
[V:2]EE EE EE EC |
[V:3]CC CC =A,A, A,A, |
[V:4]F,,F, F,F, F,F, F,F, |
[V:1]e/d/g/f/ =a/b/c'/b/ e'/d'/z2 f/B/ |
[V:2]DD DD DD DD |
[V:3]B,B, B,B, B,B, B,B, |
[V:4]F,,F, F,F, F,F, F,F, |
[V:1]B/=A/A/=B/ B/c/c/d/ d/e/e/_g/ g/=g/g/e/ |
[V:2]EE EE CC CC |
[V:3]CC CC =A,A, A,A, |
[V:4]F,,F, F,F, F,F, F,F, |
[V:1]e>d dz/d/ d(3:2:2z2 z//d/|
[V:2]CB, B,B, B,B, B,B, |
[V:3]=A,B, B,B, B,B, B,B, |
[V:4]G,G, G,G, G,G, F,F, |
[V:1]d/_d/d/c/ c/g/g/g/ =B/c/=d/c/ c/g/g/g/ |
[V:2]B,B, B,B, B,B, B,B, |
[V:3]G,G, G,G, GG GG |
[V:4]=E,E, E,E, E,E, E,E, |
[V:1]=A/f/f/f/ B/b/b/b/ =a/e'/e'/e'/ d'/b'/b'/b'/ |
[V:2]Cz Dz =Az Bz |
[V:3]Fz Fz Fz Fz |
[V:4]E,z D,z C,z B,,z |
[V:1]g'2 <z2 E2 C3/=A,/ |
[V:2]B2 <z2 C4 |
[V:3]G2 <z2 =A,2 E,2 |
[V:4]E,2 <z2 F,4 |
[V:1]B,2 z2 z4 |
[V:2]B,D DD DD DD |
[V:3]D,B, B,B, B,B, B,B, |
[V:4]B,,4 D,,2 G,,2 |
[V:1](3:2:2G4- G/G=A B|
[V:2]CC CC _DD DD |
[V:3]B,B, B,B, B,B, B,B, |
[V:4]E,,2 >>C,,2 =E,,7/ E,,/ |
[V:1]F4- (3:2:12F//G//F//=E//F//G//=A//B//c// d//e//f//g//=a//|
[V:2]DD DD [EC][EC] [EC]E |
[V:3]B,B, B,B, =A,A, A,C |
[V:4]F,,F,, F,,F,, F,,F,, F,,F,, |
[V:1]b4 _d2 _g2 |
[V:2]_DF FF _GG GG |
[V:3]B,_D DD DD EE |
[V:4]B,,B, B,B, B,B, _G,G, |
[V:1]e2 >>c2 A(3:2:2z2 z//c/|
[V:2]_GG GG GG GG |
[V:3]CC CC AA AA |
[V:4]A,A, A,A, A,z3 |
[V:1]_dz/d/ ez/e/ f(3:2:2z2 z//=d/|
[V:2]FF CC _DD BB |
[V:3]AA AA AA AA |
[V:4]z8 |
[V:1]ez/e/ fz/f/ _g(3:2:2z2 z//=e//=g//|
[V:2]BB BB BB BB |
[V:3]_GG DD EE cc |
[V:4]z8 |
[V:1]fz/f//a// gz/g//b// az/b//a// gf |
[V:2]AA =EE FF _DD |
[V:3]cc cc cc =BB |
[V:4]z8 |
[V:1]c'4 =e2 a2 |
[V:2]C=E EE cc =BB |
[V:3]cG GG GG FF |
[V:4]C,,C, C,C, C,C, C,C, |
[V:1]g2 >>=e2 cz f2 |
[V:2]cc cc cc =BB |
[V:3]=EE EE EE AA |
[V:4]C,,C, C,C, C,C, C,C, |
[V:1]=e2 >>c2 Gz A3/F/ |
[V:2]cc cc cc =BB |
[V:3]GG GG =EE FF |
[V:4]C,,C, C,C, C,C, C,C, |
[V:1]c7/ G//=E// C2 C2 |
[V:2]c7/ G//=E// C2 C2 |
[V:3]=E7/ G//E// C2 C2 |
[V:4]C,7/ G,,//=E,,// C,,2 C,,2 |
[V:1]C8 |
[V:2]C8 |
[V:3]C,8 |
[V:4]C,,8 |
[V:1]_d4 F2 B2 |
[V:2]_D8 |
[V:3]_D,6 _F,2 |
[V:4]_D,,6 G,,2 |
[V:1]_G2 >>E2 Cz G2 |
[V:2]C4 z2 E2- |
[V:3]E,4 z2 A,2- |
[V:4]A,,4 z7/ C,,/ |
[V:1]F7/ _G//F// E>A, A3/A/ |
[V:2]E>A, _D>D D3/E//D// C3/F/ |
[V:3]A,2 A,>A, A,2 z2 |
[V:4]_D,,z/D,,/ F,,z/F,,/ A,,z/A,,/ C,z/=D,,/ |
[V:1]_G7/ A//G// F>B, B3/B/ |
[V:2]F>B, E>E E2 _D3/G/ |
[V:3]B,2 B,>B, B,2 z2 |
[V:4]E,,z/E,,/ _G,,z/G,,/ B,,z/B,,/ _D,z/=E,,/ |
[V:1]A7/ B//A// G>C c3/B/ |
[V:2]G>C F>F F3/G//F// =E3/G/ |
[V:3]C2 C>C C2 C3/C/ |
[V:4]F,,z/F,,/ A,,z/A,,/ C,z/C,/ =E,z/E,/ |
[V:1]Az/F <cB/ Az/F <cB/ |
[V:2]Az G>G Az G3/G/ |
[V:3]Cz C>C Cz C3/C/ |
[V:4]F,z =E,>E, F,z E,3/E,/ |
[V:1]Az/A/ Gz/G/ Fz/F/ Fz/F/ |
[V:2]Az/F/ =Ez/E/ Fz/F/ _Ez/E/ |
[V:3]Cz/C/ Cz/C/ Cz/C/ Cz/C/ |
[V:4]F,z/F,/ G,z/G,/ A,z/A,/ =A,z/A,/ |
[V:1]Fz/F/ Gz/G/ A(3:2:2z2 z//F/|
[V:2]Dz/D/ Ez/=E/ Fz2 z/D/ |
[V:3]B,z/B/ B,z4 z/B/ |
[V:4]B,2 z2 >>=A,,2 B,,z |
[V:1]Gz/G/ Az/=A/ B(3:2:2z2 z//G/|
[V:2]Ez/=E/ Fz/^F/ Gz2 z/E/ |
[V:3]B,z6 z/B/ |
[V:4]z4 z>=A,, B,,z |
[V:1]Az/=A/ Bz/=B/ c(3:2:2z2 z//c/|
[V:2]Fz/^F/ Gz/G/ Az2 z/A/ |
[V:3]B,z4 z/F/ Fz |
[V:4]z4 z>D Dz |
[V:1]c(3:2:2z2 z//=B/B(3:2:2z2 z//a/|
[V:2]Az2 z/A/ Az2 z/B/ |
[V:3]z>F Fz2 z/F/ Fz |
[V:4]z>D Dz2 z/D/ Dz |
[V:1]a2 <z2 z4 |
[V:2]Bz7 |
[V:3]z>F Fz4 z |
[V:4]z>D Dz4 z |
[V:1]e4 G2 c2 |
[V:2]E4 G4 |
[V:3]E,4 C4 |
[V:4]E,,4 =E,,4 |
[V:1]A2 >>F2 D(3:2:2z2 z//D/|
[V:2]C4 A,z2 z/B,/ |
[V:3]C4 F,z3 |
[V:4]F,,4 B,,z2 z/A,/ |
[V:1]E2 F2 G2 A2 |
[V:2]B,6 C2 |
[V:3]z6 F2 |
[V:4]G,2 D,2 E,2 A,,2 |
[V:1]G4 Fz (3:2:15=A,//-A,/16B,//-B,/16C//-C/16D//-D/16E//F//G//A//B// c//d//|
[V:2]B,4 z4 |
[V:3]E4 D2 F3/D/ |
[V:4]B,,6 A,,3/F,,/ |
[V:1]ee ee ed e=e |
[V:2]EE EE ED E=E |
[V:3]E4 G,2 C2 |
[V:4]E,,4 G,,2 C,2 |
[V:1]ff ff f=e ff |
[V:2]FF FF F=E FF |
[V:3]A,2 >>F,2 D,z [B3/D3/][D/B/]|
[V:4]A,,2 >>F,,2 D,,z3 |
[V:1](3:2:2_g4- g/gg g|
[V:2]_GG GG ee e_g |
[V:3][BE]B BB BB BE |
[V:4]E4 _G,2 _C2 |
[V:1]=b2 (3:2:2b2-b//_b/=b/ _b/=b/e'/_d'/ b/|
[V:2]_gg gg ff fa |
[V:3]EE EE AA AF |
[V:4]A,2 >>F,2 _D,z3 |
[V:1]bb2 b aa >=b_b/a/ |
[V:2]aa _gg gg ff |
[V:3]_DD DD DD BB |
[V:4]_G,2 B,2 _D2 =D2 |
[V:1]_gg2 b/g/ ff gf/g/ |
[V:2]ff ee dd ed/e/ |
[V:3]BB BB BB =AA |
[V:4]E2 _G2 B2 =A2 |
[V:1]fb bb bb bb |
[V:2]dd dd ee ff |
[V:3]BB BB cc dd |
[V:4]B2 z6 |
[V:1]b4- b3/c'//b// a3/g/ |
[V:2]g4- g3/a//g// f3/=e/ |
[V:3]e4 G2 c2 |
[V:4]z8 |
[V:1]a2 a>b c'z2 c' |
[V:2]f2 f>g az2 z/a/ |
[V:3]A2 >>F2 Dz2 z/D/ |
[V:4]z8 |
[V:1]bz/b/ az/a/ gz/g/ f/g/a/f/ |
[V:2]gz/g/ fz/f/ ez/e/ cz/c/ |
[V:3]Ez/E/ Fz/F/ Gz/G/ Az/A,/ |
[V:4]z8 |
[V:1]e4- e/d/f/e/ g/f/a/g/ |
[V:2]G4 F2 z2 |
[V:3]B,6 z2 |
[V:4]z8 |
[V:1]a2 >>f2 d/B/=A/B/ c//d//e//f//g//a//=a/ |
[V:2]D6 F2 |
[V:3]F6 D3/F/ |
[V:4]B,,6 A,,2 |
[V:1]b>a g//b//a//g//f//a//g//f// e//f//g//f//e//d//c//B// A//G//F//E//D//C//=B,/ |
[V:2]E4 G2 z3/E/ |
[V:3]G2 E,2 z7/ G,/ |
[V:4]G,,2 G,2 z7/ G,,/ |
[V:1]C/D/E/=E/ F/G/A/=B/ c/=e/f/g/ a/b/c'/_e/ |
[V:2]Ez6 F |
[V:3]A,z6 E/C/ |
[V:4]A,,z4 z =A,,2 |
[V:1]b7/ f//d// B(3:2:2z2 z//b/|
[V:2]FF FF FF FF |
[V:3]DD DD DD DD |
[V:4]B,,B,, B,,B,, B,,B,, B,,B,, |
[V:1]=a3 (3_g/e/c/ (3=A/c/e/g z3/_a/ |
[V:2]_GG GG GG GE |
[V:3]EE EE EE EC |
[V:4]B,,B,, B,,B,, B,,B,, B,,B,, |
[V:1]a/g/g/_g/ g/f/f/e/ e/d/d/c/ c/B/c/A/ |
[V:2]DE FG AG FF |
[V:3]B,C DE FE DD |
[V:4]B,,B,, B,,B,, B,,B,, B,,B,, |
[V:1]A/G/c/B/ d/e/f/e/ c'/b/(3:2:2z2 z//e/|
[V:2]EG GG GG GG |
[V:3]EE EE EE EE |
[V:4]B,,B,, B,,B,, B,,B,, B,,B,, |
[V:1]d/e/e/=e/ e/f/f/g/ g/a/a/b/ b/=b/c'3//a// |
[V:2]AG FE DD DD |
[V:3]FE DC B,B, B,B, |
[V:4]B,,B,, B,,B,, B,,B,, B,,B,, |
[V:1]a>g gz/g/ g(3:2:2z2 z//g/|
[V:2]DE EE EE EE |
[V:3]CC CC CC CC |
[V:4]C,C, C,C, C,C, B,,B,, |
[V:1]g/_g/g/f/ f/c'/c'/c'/ =e/f/=g/f/ f/c'/c'/c'/ |
[V:2]EE EE EE EE |
[V:3]CC CC CC CC |
[V:4]=A,,A,, A,,A,, A,,A,, A,,A,, |
[V:1]f/b/b/b/ B/b/b/b/ (3D/B/a/a/a/ (3E/B/g/g/g/ |
[V:2][dF]z [eE]z [aBD]z [gEB]z |
[V:3]B,z B,z B,z B,z |
[V:4]A,,z G,,z B,,z E,,z |
[V:1]f2 z2 d2 z2 |
[V:2][f2A2c2] <z2 [dFB,]z3 |
[V:3]A,2 z2 A,2 z2 |
[V:4]G,,2 z2 A,,2 z2 |
[V:1]e2 z2 z4 |
[V:2]GG GG GG GG |
[V:3]G,E EE EE EE |
[V:4]E,4 G,,2 C,2 |
[V:1](3:2:2c4- c/cd e|
[V:2]FF FF _GG GG |
[V:3]EE EE EE EE |
[V:4]A,,2 >>F,,2 =A,,7/ A,,/ |
[V:1](3:2:2B4- B/B,C D|
[V:2]GG GG AF FF |
[V:3]EE EE FA, A,A, |
[V:4]B,,B,, B,,B,, B,,B,, B,,B,, |
[V:1]e4 G2 c2 |
[V:2]G4 B2 A2 |
[V:3]G,2 B,2 _D2 C2 |
[V:4]E,,E,, E,,E,, E,,E,, E,,E,, |
[V:1]A2 >>F2 Dz3 |
[V:2]D4- D[A,D] [DA,][A,D] |
[V:3]_C4- CC CC |
[V:4]E,,E,, E,,E,, E,,E,, E,,E,, |
[V:1]B2 >>G2 Ez3 |
[V:2]G,4- [G,E][EG,] [G,E][G,E] |
[V:3]B,4- B,B, B,B, |
[V:4]E,,E,, E,,E,, E,,E,, E,,E,, |
[V:1]F2 >>D2 =B,2 _B,A, |
[V:2]D4- [DA,][A,D] [DA,][A,D] |
[V:3]_C4- CC CC |
[V:4]E,,E,, E,,E,, E,,E,, E,,E,, |
[V:1]G,2 >>B,2 (3:2:2E-E/8z3//E z|
[V:2][E4G,4] B,z B,z |
[V:3]B,4 G,z G,z |
[V:4]E,,4 E,,z E,,z |
[V:1]E8 |]
[V:2]B,8 |]
[V:3]G,8 |]
[V:4]E,,8 |]

